motorbike-off.svg

<svg fill="currentColor" viewBox="0 0 24 24"><path d="M22.1 21.5 2.4 1.7 1.1 3l7 7H6.5C4 10 2 12 2 14.5S4 19 6.5 19c2.2 0 4.1-1.6 4.4-3.7l1.5-.9.6.6c.2 2.1 1.9 3.8 4 4l3.8 3.8zM8.8 15.3c-.3 1-1.3 1.7-2.4 1.7C5.1 17 4 15.9 4 14.5S5.1 12 6.5 12c1.1 0 2 .7 2.4 1.8H6v1.5zM11.2 8l-2-2h4.2l4 4h.1c2.5 0 4.5 2 4.5 4.5 0 1.2-.5 2.3-1.2 3.1l-1.4-1.4c.4-.4.6-1 .6-1.6 0-1.4-1.1-2.5-2.5-2.5-.6 0-1.2.2-1.6.6L13.2 10h1.4l-2-2z"/></svg>

<svg  viewBox="0 0 24 24" fill="currentColor"><path  d="M22.1 21.5L2.4 1.7L1.1 3L8.1 10H6.5C4 10 2 12 2 14.5S4 19 6.5 19C8.7 19 10.6 17.4 10.9 15.3L12.4 14.4L13 15C13.2 17.1 14.9 18.8 17 19L20.8 22.8L22.1 21.5M8.8 15.3C8.5 16.3 7.5 17 6.4 17C5.1 17 4 15.9 4 14.5S5.1 12 6.5 12C7.6 12 8.5 12.7 8.9 13.8H6V15.3H8.8M11.2 8L9.2 6H13.4L17.4 10H17.5C20 10 22 12 22 14.5C22 15.7 21.5 16.8 20.8 17.6L19.4 16.2C19.8 15.8 20 15.2 20 14.6C20 13.2 18.9 12.1 17.5 12.1C16.9 12.1 16.3 12.3 15.9 12.7L13.2 10H14.6L12.6 8H11.2Z"/></svg>
